material/.icons/material/gesture-swipe-horizontal.svg

<svg xmlns="http://www.w3.org/2000/svg" viewBox="0 0 24 24"><path d="M6 1L3 4l3 3V5h3v2l3-3-3-3v2H6V1m5 7a1 1 0 00-1 1v10l-3.2-1.72h-.22c-.28 0-.55.11-.74.32l-.74.77 4.9 4.2c.26.28.62.43 1 .43h6.5a1.5 1.5 0 001.5-1.5v-4.36c0-.58-.32-1.11-.85-1.35l-4.94-2.19-1.21-.13V9a1 1 0 00-1-1z"/></svg>

<?xml version="1.0" encoding="UTF-8"?><!DOCTYPE svg PUBLIC "-//W3C//DTD SVG 1.1//EN" "http://www.w3.org/Graphics/SVG/1.1/DTD/svg11.dtd"><svg xmlns="http://www.w3.org/2000/svg" xmlns:xlink="http://www.w3.org/1999/xlink" version="1.1" id="mdi-gesture-swipe-horizontal" width="24" height="24" viewBox="0 0 24 24"><path d="M6,1L3,4L6,7V5H9V7L12,4L9,1V3H6V1M11,8A1,1 0 0,0 10,9V19L6.8,17.28H6.58C6.3,17.28 6.03,17.39 5.84,17.6L5.1,18.37L10,22.57C10.26,22.85 10.62,23 11,23H17.5A1.5,1.5 0 0,0 19,21.5V17.14C19,16.56 18.68,16.03 18.15,15.79L13.21,13.6L12,13.47V9A1,1 0 0,0 11,8Z" /></svg>
